X:49
T:Haste To The Wedding
S:American Veteran Fifer #49
C:Donated by John Benjamin, Co.G.30th Mich.Vol.Inf.
M:6/8
L:1/8
Q:1/8=300
K:D 
%%MIDI program 72
%%MIDI transpose 8
%%MIDI ratio 3 1
 A | AFA Aaf | ede fdB | AFA AGF | GFG EFG |
AFA Aaf | ede fdB | AFA faf | d3 d2 :|
|: a | afa afa | bgb bgb | afa agf | gfg efg |
a3 f3 | ede fdB | AFA Aaf | edc d2 :|



